X: 1339
T: The Merry Harriers
R:Reel
N:2nd Setting
N:Collected by McFadden
B:O'Neill's 1339
Z:Transcribed by Trish O'Neil
M:C|
L:1/8
K:G
e>A (3AAA egfg|e>A (3AAA BGBd|e>A (3AAA efgb|1afge dgfg:|2afged2Bd||
e>g {a}(3gfg afge|dggd BGBd|e>g {a}(3gfg afgb|afged2Bd|
e>g {a}(3gfg b>g {a}(3gfg|dggd BGBd|eg{a}gf gabg|afge dg"D.C."fg|]


